!!!!SEGMENT: pl-cz--iii-447--002_maader-ludwik--offertorium-sanctum-est-nomen-ejus.krn
!!!cenid: 17xx:976
!!!COM: Maader, Ludwik
!!!COM-rismID: pe30020328
!!!CDT: <1794->1798
!!!CNT:
!!!OPR: Offertorium
!!!OTL: Sanctum est nomen ejus
!!!OMV: 002
!!!PDT:
!!!AGN: Sacred
!!!SMS-siglum: PL-CZ
!!!SMS-shelfmark: III-447
!!!SMS-shelfwork: 001-002 M
!!!SMS-variant:
!!!SMS-altvar:
!!!NIFC-rismSourceID: 300000755
!!!NIFC-islandoraID: pl-cz:38360
!!!URL-pdf-islandora: https://repozytorium.nifc.pl/islandora/object/pl-cz%3A38360/datastream/PDF/view
!!!URL-scan:
!!!ONB-nifc: UWAGA: części Offertorium: Laudate Dominum, Sanctum est nomen ejus
!!!AIN: 1 alto 1 bass 2 cor 2 oboe 1 organ 1 soprn 1 tenor 1 violb 2 violn
!!!key: B-
**kern	**fba	**kern	**kern	**dynam	**kern	**dynam	**kern	**kern	**text	**kern	**kern	**kern	**kern	**kern	**kern
*part12	*part12	*part11	*part10	*part10	*part9	*part9	*part8	*part7	*part7	*part6	*part5	*part4	*part3	*part2	*part1
*staff12	*	*staff11	*staff10	*	*staff9	*	*staff8	*staff7	*staff7	*staff6	*staff5	*staff4	*staff3	*staff2	*staff1
*I"Organo	*	*I"Violone	*I"Violino Secondo	*	*I"Violino Primo	*	*I"Basso	*I"Tenore	*	*I"Alto	*I"Canto.	*I"Cornu IIdo in F	*I"Cornu Imo in F	*I"Oboe 2do	*I"Oboe Imo
*I'org	*	*I'vla	*I'vl II	*	*I'vl I	*	*I'B	*I'T	*	*I'A	*I'C	*I'cor II	*I'cor I	*I'ob II	*I'ob I
*ICklav	*	*ICstr	*ICstr	*	*ICstr	*	*ICvox	*ICvox	*	*ICvox	*ICvox	*ICbras	*ICbras	*ICww	*ICww
*Iorgan	*	*Iviolb	*Ivioln	*	*Ivioln	*	*Ibass	*Itenor	*	*Ialto	*Isoprn	*Icor	*Icor	*Ioboe	*Ioboe
*clefF4	*	*clefF4	*clefG2	*	*clefG2	*	*clefF4	*clefC4	*	*clefC3	*clefC1	*clefG2	*clefG2	*clefG2	*clefG2
*	*	*	*	*	*	*	*	*	*	*	*	*ITrd4c7	*ITrd4c7	*	*
*k[b-e-]	*	*k[b-e-]	*k[b-e-]	*	*k[b-e-]	*	*k[b-e-]	*k[b-e-]	*	*k[b-e-]	*k[b-e-]	*k[b-e-]	*k[b-e-]	*k[b-e-]	*k[b-e-]
*B-:	*	*B-:	*B-:	*	*B-:	*	*B-:	*B-:	*	*B-:	*B-:	*B-:	*B-:	*B-:	*B-:
*M3/4	*	*M3/4	*M3/4	*	*M3/4	*	*M3/4	*M3/4	*	*M3/4	*M3/4	*M3/4	*M3/4	*M3/4	*M3/4
=1	=1	=1	=1	=1	=1	=1	=1	=1	=1	=1	=1	=1	=1	=1	=1
!	!	!	!	!	!	!	!	!	!	!	!	!LO:TX:b:i:t=Tacet	!LO:TX:b:i:t=Tacet	!LO:TX:b:i:t=Tacet	!LO:TX:b:i:t=Tacet
!	!	!	!	!	!	!	!	!LO:TX:t=P::problem=caudy drobnych nut nieregularnie&colon; prawa, lewa, środek	!	!	!	!	!	!	!LO:TX:a:B:t=Andante
!LO:TX:a:B:t=andante	!	!LO:TX:a:B:t=andante	!LO:TX:a:B:t=and&colon;	!	!	!	!	!LO:TX:a:B:t=And&colon;	!	!	!	!	!	!	!
!	!	!	!	!	!	!	!	!LO:TX:a:i:t=Solo	!	!	!	!	!	!	!
4BB-/	.	4BB-/	2.r	.	2.r	.	2.ryy	4B-\	San-	2.ryy	2.ryy	2.ryy	2.ryy	2.ryy	2.ryy
4r	.	4r	.	.	.	.	.	4B-\	-ctu	.	.	.	.	.	.
4r	.	4r	.	.	.	.	.	4B-\	est	.	.	.	.	.	.
=2	=2	=2	=2	=2	=2	=2	=2	=2	=2	=2	=2	=2	=2	=2	=2
*	*	*	*	*	*	*	*	*2\right	*	*	*	*	*	*	*
!	!	!	!LO:TX:a:i:t=Stocato	!	!LO:TX:a:i:t=Stocato	!	!	!	!	!	!	!	!	!	!
!	!	!	!	!LO:DY:t=pia&colon;	!	!	!	!	!	!	!	!	!	!	!
!	!	!	!	!	!	!LO:DY:a:t=pia&colon;	!	!	!	!	!	!	!	!	!
8r	.	8r	8r	p	8r	p	2.ryy	2.B-\	No-	2.ryy	2.ryy	2.ryy	2.ryy	2.ryy	2.ryy
!LO:TX:t=P:problem=mixed beam	!	!LO:TX:t=P:problem=mixed beam	!	!	!	!	!	!	!	!	!	!	!	!	!
8BB-'/L	.	8BB-'\L	8B-'/L	.	8B-'/L	.	.	.	.	.	.	.	.	.	.
8D'/	.	8D'\	8d'/	.	8d'/	.	.	.	.	.	.	.	.	.	.
8F'/	.	8F'\	8f'/	.	8f'/	.	.	.	.	.	.	.	.	.	.
8B-'/	.	8B-'\	8b-'/	.	8b-'/	.	.	.	.	.	.	.	.	.	.
8BB-/J	.	8BB-'\J	8B-'/J	.	8B-'/J	.	.	.	.	.	.	.	.	.	.
!	!	!	!LO:LB:g=original	!	!	!	!	!	!	!	!	!	!	!	!
=3	=3	=3	=3	=3	=3	=3	=3	=3	=3	=3	=3	=3	=3	=3	=3
8r	.	8r	8r	.	8r	.	2.ryy	2.c\	.	2.ryy	2.ryy	2.ryy	2.ryy	2.ryy	2.ryy
8AA/L	3_	8AA/L	8A'/L	.	8A/L	.	.	.	.	.	.	.	.	.	.
8C/	.	8C/	8c'/	.	8c/	.	.	.	.	.	.	.	.	.	.
8F/	.	8E-/	8f'/	.	8f/	.	.	.	.	.	.	.	.	.	.
8A/	.	8A/	8a'/	.	8a/	.	.	.	.	.	.	.	.	.	.
8AA/J	.	8AA/J	8A'/J	.	8A/J	.	.	.	.	.	.	.	.	.	.
=4	=4	=4	=4	=4	=4	=4	=4	=4	=4	=4	=4	=4	=4	=4	=4
8r	.	8r	8r	.	8r	.	2.ryy	2.d\	.	2.ryy	2.ryy	2.ryy	2.ryy	2.ryy	2.ryy
!LO:TX:t=P:problem=mixed beam	!	!LO:TX:t=P:problem=mixed beam	!	!	!	!	!	!	!	!	!	!	!	!	!
8BB-/L	3_	8BB-/L	8B-/L	.	8B-/L	.	.	.	.	.	.	.	.	.	.
8D/	.	8D/	8d/	.	8d/	.	.	.	.	.	.	.	.	.	.
8F/	.	8F/	8f/	.	8f/	.	.	.	.	.	.	.	.	.	.
8B-/	.	8B-/	8b-/	.	8b-/	.	.	.	.	.	.	.	.	.	.
8BB-/J	.	8BB-/J	8B-/J	.	8B-/J	.	.	.	.	.	.	.	.	.	.
!LO:LB:g=original	!	!	!	!	!	!	!	!	!	!	!	!	!	!	!
=5	=5	=5	=5	=5	=5	=5	=5	=5	=5	=5	=5	=5	=5	=5	=5
8r	.	8r	8r	.	8r	.	2.ryy	2.e-X\	-men	2.ryy	2.ryy	2.ryy	2.ryy	2.ryy	2.ryy
8F\L	-7	8E-\L	8f/L	.	8f/L	.	.	.	.	.	.	.	.	.	.
8A\	.	8A\	8a/	.	8a/	.	.	.	.	.	.	.	.	.	.
8c\	.	8c\	8cc/	.	8cc/	.	.	.	.	.	.	.	.	.	.
8e-X\	.	8e-X\	8ee-X/	.	8ee-X/	.	.	.	.	.	.	.	.	.	.
8F\J	.	8F\J	8f/J	.	8f/J	.	.	.	.	.	.	.	.	.	.
!	!	!LO:LB:g=original	!	!	!	!	!	!	!	!	!	!	!	!	!
=6	=6	=6	=6	=6	=6	=6	=6	=6	=6	=6	=6	=6	=6	=6	=6
8r	.	8r	8r	.	8r	.	2.ryy	2.d\	e-	2.ryy	2.ryy	2.ryy	2.ryy	2.ryy	2.ryy
!LO:TX:t=P:problem=mixed beam	!	!LO:TX:t=P:problem=mixed beam	!	!	!	!	!	!	!	!	!	!	!	!	!
8BB-\L	3_	8BB-/L	8B-/L	.	8B-/L	.	.	.	.	.	.	.	.	.	.
8D\	.	8D/	8d/	.	8d/	.	.	.	.	.	.	.	.	.	.
8F\	.	8F/	8f/	.	8f/	.	.	.	.	.	.	.	.	.	.
8B-\	.	8B-/	8b-/	.	8b-/	.	.	.	.	.	.	.	.	.	.
8BB-\J	.	8BB-/J	8B-/J	.	8B-/J	.	.	.	.	.	.	.	.	.	.
=7	=7	=7	=7	=7	=7	=7	=7	=7	=7	=7	=7	=7	=7	=7	=7
8r	.	8r	8r	.	8r	.	2.ryy	2.d-X\	.	2.ryy	2.ryy	2.ryy	2.ryy	2.ryy	2.ryy
!	!	!LO:TX:t=P:problem=mixed beam	!	!	!	!	!	!	!	!	!	!	!	!	!
8BB-\L	-3	8BB-/L	8B-/L	.	8B-/L	.	.	.	.	.	.	.	.	.	.
8D-X\	.	8D-X/	8d-X/	.	8d-X/	.	.	.	.	.	.	.	.	.	.
8F\	.	8F/	8f/	.	8f/	.	.	.	.	.	.	.	.	.	.
8B-\	.	8B-/	8b-/	.	8b-/	.	.	.	.	.	.	.	.	.	.
8En\J	.	8En/J	8en/J	.	8en/J	.	.	.	.	.	.	.	.	.	.
!	!	!	!	!	!LO:LB:g=original	!	!	!LO:LB:g=original	!	!	!	!	!	!	!
=8	=8	=8	=8	=8	=8	=8	=8	=8	=8	=8	=8	=8	=8	=8	=8
8r	.	8r	8r	.	8r	.	2.ryy	2c\	-jus	2.ryy	2.ryy	2.ryy	2.ryy	2.ryy	2.ryy
!LO:TX:t=P:problem=mixed beam	!	!LO:TX:t=P:problem=mixed beam	!	!	!LO:TX:t=P:problem=mixed beam	!	!	!	!	!	!	!	!	!	!
8F\L	5_	8F\L	8f/L	.	8f/L	.	.	.	.	.	.	.	.	.	.
8A\	.	8A\	8a/	.	8a/	.	.	.	.	.	.	.	.	.	.
8c\	.	8c\	8cc/	.	8cc/	.	.	.	.	.	.	.	.	.	.
8f\	.	8f\	8ff/	.	8ff/	.	.	4r	.	.	.	.	.	.	.
8E-X\J	.	8E-X\J	8e-X/J	.	8e-X/J	.	.	.	.	.	.	.	.	.	.
=9	=9	=9	=9	=9	=9	=9	=9	=9	=9	=9	=9	=9	=9	=9	=9
8r	.	8r	8r	.	8r	.	2.ryy	2f\	San-	2.ryy	2.ryy	2.ryy	2.ryy	2.ryy	2.ryy
!LO:TX:t=P:problem=mixed beam	!	!LO:TX:t=P:problem=mixed beam	!	!	!	!	!	!	!	!	!	!	!	!	!
8BB-/L	-7_	8BB-/L	8B-/L	.	8B-'/L	.	.	.	.	.	.	.	.	.	.
8D/	.	8D/	8d/	.	8d'/	.	.	.	.	.	.	.	.	.	.
8F/	.	8F/	8f/	.	8f'/	.	.	.	.	.	.	.	.	.	.
8B-/	.	8B-/	8b-/	.	8b-'/	.	.	4A-X/	-ctum	.	.	.	.	.	.
8D/J	.	8D/J	8d/J	.	8d'/J	.	.	.	.	.	.	.	.	.	.
!LO:LB:g=original	!	!	!	!	!	!	!	!	!	!	!	!	!	!	!
=10	=10	=10	=10	=10	=10	=10	=10	=10	=10	=10	=10	=10	=10	=10	=10
.	.	.	.	.	.	.	.	8qqA/	.	.	.	.	.	.	.
8r	.	8r	8r	.	8r	.	2.ryy	4G/	est	2.ryy	2.ryy	2.ryy	2.ryy	2.ryy	2.ryy
!	!	!	!	!	!LO:TX:t=P:problem=mixed beam	!	!	!	!	!	!	!	!	!	!
8E-X\L	.	8E-X\L	8e-/L	.	8e-X'/L	.	.	.	.	.	.	.	.	.	.
8G\	.	8G\	8g/	.	8g'/	.	.	4r	.	.	.	.	.	.	.
8B-\	.	8B-\	8b-/	.	8b-'/	.	.	.	.	.	.	.	.	.	.
8e-\	.	8e-\	8ee-/	.	8ee-'/	.	.	4r	.	.	.	.	.	.	.
8E-\J	.	8E-\J	8e-/J	.	8e-'/J	.	.	.	.	.	.	.	.	.	.
=11	=11	=11	=11	=11	=11	=11	=11	=11	=11	=11	=11	=11	=11	=11	=11
8r	.	8r	8r	.	8r	.	2.ryy	2g\	San-	2.ryy	2.ryy	2.ryy	2.ryy	2.ryy	2.ryy
8C\L	7_	8C\L	8c/L	.	8c'/L	.	.	.	.	.	.	.	.	.	.
8En\	.	8En\	8en/	.	8en'/	.	.	.	.	.	.	.	.	.	.
8G\	.	8G\	8g/	.	8g'/	.	.	.	.	.	.	.	.	.	.
8c\	.	8c\	8cc'/	.	8cc'/	.	.	4B-\	-ctum	.	.	.	.	.	.
8E\J	.	8E\J	8e/J	.	8e'/J	.	.	.	.	.	.	.	.	.	.
!	!	!LO:LB:g=original	!LO:LB:g=original	!	!	!	!	!	!	!	!	!	!	!	!
=12	=12	=12	=12	=12	=12	=12	=12	=12	=12	=12	=12	=12	=12	=12	=12
8r	.	8r	8r	.	8r	.	2.ryy	4An\	est	2.ryy	2.ryy	2.ryy	2.ryy	2.ryy	2.ryy
!	!	!LO:TX:t=P:problem=mixed beam	!	!	!	!	!	!	!	!	!	!	!	!	!
8F\L	.	8F\L	8f/L	.	8f/L	.	.	.	.	.	.	.	.	.	.
8A\	.	8A\	8a/	.	8a/	.	.	4r	.	.	.	.	.	.	.
8c\	.	8c\	8cc/	.	8cc/	.	.	.	.	.	.	.	.	.	.
8f\	.	8f\	8ff/	.	8ff/	.	.	4r	.	.	.	.	.	.	.
8F\J	.	8F\J	8f/J	.	8f/J	.	.	.	.	.	.	.	.	.	.
=13	=13	=13	=13	=13	=13	=13	=13	=13	=13	=13	=13	=13	=13	=13	=13
8r	.	8r	8r	.	8r	.	2.ryy	2.e-\	San-	2.ryy	2.ryy	2.ryy	2.ryy	2.ryy	2.ryy
!LO:TX:t=P:problem=mixed beam	!	!LO:TX:t=P:problem=mixed beam	!	!	!	!	!	!	!	!	!	!	!	!	!
8F\L	.	8F\L	8f/L	.	8f/L	.	.	.	.	.	.	.	.	.	.
8A\	.	8A\	8a/	.	8a/	.	.	.	.	.	.	.	.	.	.
8c\	.	8c\	8cc/	.	8cc/	.	.	.	.	.	.	.	.	.	.
8e-X\	.	8e-X\	8ee-X/	.	8ee-X/	.	.	.	.	.	.	.	.	.	.
8E-\J	.	8F\J	8f/J	.	8f/J	.	.	.	.	.	.	.	.	.	.
=14	=14	=14	=14	=14	=14	=14	=14	=14	=14	=14	=14	=14	=14	=14	=14
8r	.	8r	8r	.	8r	.	2.ryy	2.d\	-ctum	2.ryy	2.ryy	2.ryy	2.ryy	2.ryy	2.ryy
!LO:TX:t=P:problem=mixed beam	!	!LO:TX:t=P:problem=mixed beam	!	!	!	!	!	!	!	!	!	!	!	!	!
8BB-/L	.	8BB-/L	8B-'/L	.	8B-/L	.	.	.	.	.	.	.	.	.	.
8D/	.	8D/	8d'/	.	8d/	.	.	.	.	.	.	.	.	.	.
8F/	.	8F/	8f'/	.	8f/	.	.	.	.	.	.	.	.	.	.
8B-/	.	8B-/	8b-'/	.	8b-/	.	.	.	.	.	.	.	.	.	.
8D/J	.	8D/J	8d/J	.	8d/J	.	.	.	.	.	.	.	.	.	.
!	!	!	!	!	!LO:LB:g=original	!	!	!LO:LB:g=original	!	!	!	!	!	!	!
=15	=15	=15	=15	=15	=15	=15	=15	=15	=15	=15	=15	=15	=15	=15	=15
4E-\	6	4E-\	4e-/	.	4cc\	.	2.ryy	4c\	San-	2.ryy	2.ryy	2.ryy	2.ryy	2.ryy	2.ryy
4F\	4	4F\	4d/	.	4b-\	.	.	4B-\	.	.	.	.	.	.	.
4FF/	3	4FF/	4c/	.	4a\	.	.	4An\	-ctum	.	.	.	.	.	.
!LO:LB:g=original	!	!	!	!	!	!	!	!	!	!	!	!	!	!	!
=16	=16	=16	=16	=16	=16	=16	=16	=16	=16	=16	=16	=16	=16	=16	=16
4BB-/	.	4BB-/	4d/	.	4b-\	.	2.ryy	4B-\	est	2.ryy	2.ryy	2.ryy	2.ryy	2.ryy	2.ryy
4D\	-5	4D\	4f/	.	4a-X\	.	.	4A-X\	No-	.	.	.	.	.	.
4D\	.	4D\	4f/	.	4a-\	.	.	4A-\	-men	.	.	.	.	.	.
=17	=17	=17	=17	=17	=17	=17	=17	=17	=17	=17	=17	=17	=17	=17	=17
4E-\	.	4E-\	4B-/	.	4g\	.	2.ryy	8G\L	No-	2.ryy	2.ryy	2.ryy	2.ryy	2.ryy	2.ryy
.	.	.	.	.	.	.	.	16A\L	.	.	.	.	.	.	.
.	.	.	.	.	.	.	.	16Bn\JJ	.	.	.	.	.	.	.
4r	.	4r	4r	.	4r	.	.	16c\LL	.	.	.	.	.	.	.
.	.	.	.	.	.	.	.	16B\	.	.	.	.	.	.	.
.	.	.	.	.	.	.	.	16c\	.	.	.	.	.	.	.
.	.	.	.	.	.	.	.	16d\JJ	.	.	.	.	.	.	.
4r	.	4r	4r	.	4r	.	.	16e-\LL	.	.	.	.	.	.	.
.	.	.	.	.	.	.	.	16d\	.	.	.	.	.	.	.
.	.	.	.	.	.	.	.	16e-\	.	.	.	.	.	.	.
.	.	.	.	.	.	.	.	16f\JJ	.	.	.	.	.	.	.
=18	=18	=18	=18	=18	=18	=18	=18	=18	=18	=18	=18	=18	=18	=18	=18
4E-\	.	4E-\	4B-/	.	4g/	.	2.ryy	4g\	.	2.ryy	2.ryy	2.ryy	2.ryy	2.ryy	2.ryy
4r	.	4r	4r	.	4r	.	.	16g\LL	.	.	.	.	.	.	.
.	.	.	.	.	.	.	.	16f\	.	.	.	.	.	.	.
.	.	.	.	.	.	.	.	16e-\	.	.	.	.	.	.	.
.	.	.	.	.	.	.	.	16d\JJ	.	.	.	.	.	.	.
4r	.	4r	4r	.	4r	.	.	16c\LL	.	.	.	.	.	.	.
.	.	.	.	.	.	.	.	16B-X\	.	.	.	.	.	.	.
.	.	.	.	.	.	.	.	16A\	.	.	.	.	.	.	.
.	.	.	.	.	.	.	.	16G\JJ	.	.	.	.	.	.	.
!	!	!LO:LB:g=original	!	!	!	!	!	!LO:LB:g=original	!	!	!	!	!	!	!
=19	=19	=19	=19	=19	=19	=19	=19	=19	=19	=19	=19	=19	=19	=19	=19
8D\L	6	8D\L	8f/L	.	4b-\	.	2.ryy	8F/	.	2.ryy	2.ryy	2.ryy	2.ryy	2.ryy	2.ryy
8E-\J	6	8E-\J	8g/J	.	.	.	.	16B-\LL	-men	.	.	.	.	.	.
.	.	.	.	.	.	.	.	16c\JJ	.	.	.	.	.	.	.
2F\	.	2F\	2g/	.	(4b-\	.	.	2cT\	e-	.	.	.	.	.	.
.	.	.	.	.	4a\)	.	.	.	.	.	.	.	.	.	.
=20	=20	=20	=20	=20	=20	=20	=20	=20	=20	=20	=20	=20	=20	=20	=20
4BB-/	.	4BB-/	4f/	.	4b-\	.	2.ryy	4B-\	-jus.	2.ryy	2.ryy	2.ryy	2.ryy	2.ryy	2.ryy
4r	.	4r	4r	.	4r	.	.	4r	.	.	.	.	.	.	.
!LO:TX:b:i:t=Da Capo.	!	!LO:TX:b:t=Da Capo	!LO:TX:b:i:t=Da Capo.	!	!LO:TX:b:i:t=Da Capo.	!	!	!LO:TX:b:i:t=Da Capo.	!	!	!	!	!	!	!
4r	.	4r	4r	.	4r	.	.	4r	.	.	.	.	.	.	.
==	==	==	==	==	==	==	==	==	==	==	==	==	==	==	==
*-	*-	*-	*-	*-	*-	*-	*-	*-	*-	*-	*-	*-	*-	*-	*-
!!!system-decoration: [(s1,s2,s3,s4)][(s5,s6,s7,s8)][(s9,s10,s11)]s12
!!!ENC: Mateusz Solarz
!!!END: 2020-09-07
!!!ENC: Jan Barakat
!!!END: 2022-01-27
!!!YEC: Copyright 2022 Narodowy Instytut Fryderyka Chopina (https://polishscores.org)
!!!YEM: Licence CC BY 4.0 (https://creativecommons.org/licenses/by/4.0)
